X:1
T:Merciless beauty
T:John Stafford Smith (1750-1836)
T:Poem by Geoffrey Chaucer (1328-1400)
T:Merciless beauty
T:A roundelay
T:Copyright © 
T:Copyright © 
T:Copyright © 
C:John Stafford Smith (1750-1836)
Z:Poem by Geoffrey Chaucer (1328-1400)
Z:Copyright ©
%%score [ 1 2 3 ]
L:1/8
M:2/2
K:C
V:1 treble nm="Alto" snm="A."
V:2 treble-8 transpose=-12 nm="Tenor" snm="T."
V:3 bass nm="Bass" snm="B."
V:1
 z4 A,4 C8 | F4 (E2 D2) C2 B,2 C2 D2 | B,4 (C2 D2) E4 F4 | E4 E4 A4 ^G4 | A8 z8 | z4 E4 G6 G2 | %6
w: Youre two|eyn will _ sle me so- den-|ly, will _ sle me,|sle me so- den-|ly.|I may the|
 D4 D4 F4 F4 | C6 D2 E8 | z8 z4 C4 | E6 E2 D8 | F6 F2 E4 G4 | D4 E4 B,8 | !fermata!^C16 || %13
w: beau- te of them|not sus- tene.|So|wen- deth it|tho- row- out my|herte, my herte|kene.|
 E4 E2 E2 F4 G4 | A4 (G2 F2) E3 E E4 | z16 | z16 | z4 D4 D6 D2 | C4 E2 E4 E2 D4 | E16 | z4 A,4 C8 | %21
w: And but your words will|he- len _ has- te- ly.|||my her- teis|wound while that it is|grene.|Youre two|
 F4 (E2 D2) C2 B,2 C2 D2 | B,4 (C2 D2) E4 F4 | E4 E4 A4 ^G4 | A8 z8 | z4 E4 E6 E2 | E12 F4 | %27
w: eyn will _ sle me so- den-|ly, will _ sle me,|sle me so- den-|ly.|Up- on my|trouth I|
 (D2 E2) F4 F4 E4 | F4 z4 z8 | z16 | z4 D2 D2 F4 E2 D2 | G6 G2 G4 F4 | E4 A6 E2 F4 | %33
w: sey _ you feith- ful-|ly,||that ye ben of my|liffe and deth the|quene, for with my|
 ^C4 D4 E4 A,2 A,2 | A,4 D8 ^C4 | D4 z4 z8 | z4 D6 A,2 B,4 | ^F,4 G,4 A,4 A,2 A,2 | %38
w: deth the trouth shall be|sene, shall be|sene,|for with my|deth the trouth shall be|
 B,4 E8"^End with ye first strain." ^D4 | E16 |] %40
w: sene, shall be|sene.|
V:2
 z16 | z8 z4 E4 | G8 c6 (BA) | G2 G2 (c6 BA) B4 | A4 (c6 B2) A4 | B8 z8 | z4 B4 d6 d2 | %7
w: |Youre|two eyn will _|sle me so- * * den-|ly, so- * den-|ly.|I may the|
 A4 A4 c4 c4 | B6 A2 A8 | z4 G4 B6 B2 | A8 c6 c2 | B4 A4 ^G8 | !fermata!A16 || ^c4 c2 c2 d4 e4 | %14
w: beau- te of them|not sus- tene.|So wen- deth|it tho- row-|out my herte|kene.|And but your words will|
 f4 (e2 d2) ^c3 c c4 | ^F4 F2 F2 G4 A4 | _B4 (A2 G2) ^F6 F2 | ^F4 =F4 E4 E4 | E4 ^G4 A2 A2 A4 | %19
w: he- len _ has- te- ly.|And but your words will|he- len _ has- te-|ly my her- *|wound while that it is|
 ^G16 | z16 | z8 z4 E4 | G8 c6 (BA) | G2 G2 (c6 BA) B4 | A4 (c6 B2) A4 | B4 G4 G6 G2 | G12 A4 | %27
w: grene.||Youre|two eyn will _|sle me so- * * den-|ly, so- * den-|ly. Up- on my|trouth I|
 (F2 G2) F4 G6 G2 | A4 A2 A2 c4 B2 A2 | d6 d2 A6 A2 | _B8 A6 A2 | e6 e2 e4 d4 | ^c8 z8 | %33
w: sey _ you feith- ful-|ly, that ye ben of my|liffe and deth the|quene, of my|liffe and deth the|quene,|
 z4 A6 E2 F4 | ^C4 F4 E4 E2 E2 | ^F4 z4 z4 d4- | d2 A2 B4 ^F4 G4 | D4 D4 ^F4 F2 F2 | G4 G4 ^F8 | %39
w: for with my|deth the trouth shall be|sene, for|* with my deth the|trouth, the trouth shall be|sene, shall be|
 ^G16 |] %40
w: sene.|
V:3
 z16 | z16 | z8 z4 A,,4 | C,8 F,4 ((E,2 D,2)) | (C,2 B,,2) A,,4 F,6 F,2 | E,8 z4 E,4 | %6
w: ||Youre|two eyn will _|sle * me so- den-|ly. I|
 G,6 G,2 D,4 D,4 | F,4 F,4 C,6 D,2 | E,8 z4 A,,4 | C,6 C,2 G,,8 | D,6 D,2 A,4 E,4 | G,4 E,4 E,8 | %12
w: may the beau- te|of them not sus-|tene. So|wen- deth it|tho- row- out my|herte, my herte|
 !fermata!A,,16- || A,,16 | z16 | D,4 D,2 D,2 E,4 ^F,4 | G,4 (=F,2 _E,2) D,6 D,2 | %17
w: kene.|_||And but your words will|he- len _ has- te-|
 D,4 B,,4 ^G,,6 G,,2 | A,,4 E,4 F,4 F,2 F,2 | E,16 | z16 | z16 | z8 z4 A,,4 | C,8 F,4 ((E,2 D,2)) | %24
w: ly my her- teis|wound while that it is|grene.|||Youre|two eyn will _|
 (C,2 B,,2) A,,4 F,6 F,2 | E,4 C,4 C,6 C,2 | C,12 F,4 | _B,,4 F,4 C,6 C,2 | F,4 z4 z8 | %29
w: sle * me so- den-|ly. Up- on my|trouth I|sey you feith- ful-|ly,|
 z4 D,2 D,2 F,4 E,2 D,2 | G,6 G,2 D,6 D,2 | C,6 C,2 C,4 D,4 | A,,8 z4 A,4- | A,2 E,2 F,4 ^C,4 D,4 | %34
w: that ye ben of my|liffe and deth, my|liffe and deth the|quene, for|_ with my deth the|
 A,,8 A,,4 A,,4 | D,4 D6 A,2 B,4 | ^F,4 G,4 D,4 D,4- | D,2 A,,2 B,,4 D,6 D,2 | %38
w: trouth shall be|sene, for with my|deth the trouth, for|_ with my deth the|
 (G,,6 A,,2) B,,4 B,,4 | E,16 |] %40
w: trouth _ shall be|sene.|

